src/assets/outline/ShoppingCart.svg

<?xml version="1.0" encoding="UTF-8"?>
<svg width="24" height="24" viewBox="0 0 24 24" xmlns="http://www.w3.org/2000/svg">
 <path d="m18.19 17.75h-10.65c-0.99 0-1.94-0.42-2.61-1.15s-1.01-1.71-0.92999-2.7l0.83-9.96c0.03-0.31-0.08001-0.60999-0.29001-0.83999s-0.49999-0.35001-0.80999-0.35001h-1.73c-0.41 0-0.75-0.34-0.75-0.75s0.34-0.75 0.75-0.75h1.74c0.73 0 1.42 0.31 1.91 0.84 0.27 0.3 0.47001 0.65 0.58001 1.04h12.49c1.01 0 1.94 0.4 2.62 1.12 0.67 0.73 1.01 1.68 0.93 2.69l-0.54 7.5c-0.11 1.83-1.71 3.31-3.54 3.31zm-11.91-13.13-0.78 9.4c-0.05 0.58 0.14 1.13 0.53 1.56s0.92999 0.66 1.51 0.66h10.65c1.04 0 1.98-0.88 2.06-1.92l0.54-7.5c0.04-0.59-0.15-1.15-0.54-1.56-0.39-0.42-0.93-0.65002-1.52-0.65002h-12.45v0.01001z"/>
 <path d="m16.25 22.75c-1.1 0-2-0.9-2-2s0.9-2 2-2 2 0.9 2 2-0.9 2-2 2zm0-2.5c-0.28 0-0.5 0.22-0.5 0.5s0.22 0.5 0.5 0.5 0.5-0.22 0.5-0.5-0.22-0.5-0.5-0.5z"/>
 <path d="m8.25 22.75c-1.1 0-2-0.9-2-2s0.9-2 2-2 2 0.9 2 2-0.9 2-2 2zm0-2.5c-0.28 0-0.5 0.22-0.5 0.5s0.22 0.5 0.5 0.5 0.5-0.22 0.5-0.5-0.22-0.5-0.5-0.5z"/>
 <path d="m21 8.75h-12c-0.41 0-0.75-0.34-0.75-0.75s0.34-0.75 0.75-0.75h12c0.41 0 0.75 0.34 0.75 0.75s-0.34 0.75-0.75 0.75z"/>
</svg>

<svg width="24" height="24" viewBox="0 0 24 24"  xmlns="http://www.w3.org/2000/svg">
<path d="M18.19 17.75H7.53999C6.54999 17.75 5.59999 17.33 4.92999 16.6C4.25999 15.87 3.92 14.89 4 13.9L4.83 3.94C4.86 3.63 4.74999 3.33001 4.53999 3.10001C4.32999 2.87001 4.04 2.75 3.73 2.75H2C1.59 2.75 1.25 2.41 1.25 2C1.25 1.59 1.59 1.25 2 1.25H3.74001C4.47001 1.25 5.15999 1.56 5.64999 2.09C5.91999 2.39 6.12 2.74 6.23 3.13H18.72C19.73 3.13 20.66 3.53 21.34 4.25C22.01 4.98 22.35 5.93 22.27 6.94L21.73 14.44C21.62 16.27 20.02 17.75 18.19 17.75ZM6.28 4.62L5.5 14.02C5.45 14.6 5.64 15.15 6.03 15.58C6.42 16.01 6.95999 16.24 7.53999 16.24H18.19C19.23 16.24 20.17 15.36 20.25 14.32L20.79 6.82001C20.83 6.23001 20.64 5.67001 20.25 5.26001C19.86 4.84001 19.32 4.60999 18.73 4.60999H6.28V4.62Z" />
<path d="M16.25 22.75C15.15 22.75 14.25 21.85 14.25 20.75C14.25 19.65 15.15 18.75 16.25 18.75C17.35 18.75 18.25 19.65 18.25 20.75C18.25 21.85 17.35 22.75 16.25 22.75ZM16.25 20.25C15.97 20.25 15.75 20.47 15.75 20.75C15.75 21.03 15.97 21.25 16.25 21.25C16.53 21.25 16.75 21.03 16.75 20.75C16.75 20.47 16.53 20.25 16.25 20.25Z" />
<path d="M8.25 22.75C7.15 22.75 6.25 21.85 6.25 20.75C6.25 19.65 7.15 18.75 8.25 18.75C9.35 18.75 10.25 19.65 10.25 20.75C10.25 21.85 9.35 22.75 8.25 22.75ZM8.25 20.25C7.97 20.25 7.75 20.47 7.75 20.75C7.75 21.03 7.97 21.25 8.25 21.25C8.53 21.25 8.75 21.03 8.75 20.75C8.75 20.47 8.53 20.25 8.25 20.25Z" />
<path d="M21 8.75H9C8.59 8.75 8.25 8.41 8.25 8C8.25 7.59 8.59 7.25 9 7.25H21C21.41 7.25 21.75 7.59 21.75 8C21.75 8.41 21.41 8.75 21 8.75Z" />
</svg>
